img/logo-gray.svg

<svg width="139" height="30" viewBox="0 0 139 30" fill="none" xmlns="http://www.w3.org/2000/svg">
<path d="M27.3812 6.5296C24.6786 2.58665 20.1414 0 15 0C6.71573 0 0 6.71572 0 15C0 16.2052 0.14215 17.3773 0.410585 18.5003L8.04917 10.8617C8.78141 10.1294 9.96859 10.1294 10.7008 10.8617L16.875 17.0358L27.3812 6.5296Z" fill="#8794BA"/>
<path d="M29.1641 10.0501L18.2008 21.0133C17.4686 21.7456 16.2814 21.7456 15.5492 21.0133L9.375 14.8392L1.90063 22.3135C4.46662 26.8997 9.37125 30 15 30C23.2843 30 30 23.2843 30 15C30 13.2655 29.7056 11.5998 29.1641 10.0501Z" fill="#8794BA"/>
<path d="M47.1063 18.7921H43.2017L42.5198 21.0001H39.4757L43.8105 9.18073H46.4894L50.8567 21.0001H47.7963L47.1063 18.7921ZM43.8836 16.5922H46.4244L45.15 12.4927L43.8836 16.5922Z" fill="#8794BA"/>
<path d="M61.5964 21.0001H58.7633L54.5746 13.6454V21.0001H51.7253V9.18073H54.5746L58.7552 16.5353V9.18073H61.5964V21.0001Z" fill="#8794BA"/>
<path d="M70.2579 18.7921H66.3533L65.6714 21.0001H62.6273L66.9622 9.18073H69.641L74.0083 21.0001H70.9479L70.2579 18.7921ZM67.0352 16.5922H69.576L68.3016 12.4927L67.0352 16.5922Z" fill="#8794BA"/>
<path d="M77.7262 18.8083H82.6861V21.0001H74.8769V9.18073H77.7262V18.8083Z" fill="#8794BA"/>
<path d="M85.9413 14.3111L88.1168 9.18073H91.1934L87.3862 16.7545V21.0001H84.4963V16.7545L80.6973 9.18073H83.7576L85.9413 14.3111Z" fill="#8794BA"/>
<path d="M101.479 11.3806H97.9311V21.0001H95.0818V11.3806H91.5993V9.18073H101.479V11.3806Z" fill="#8794BA"/>
<path d="M105.724 21.0001H102.883V9.18073H105.724V21.0001Z" fill="#8794BA"/>
<path d="M117.267 16.998C117.23 17.8206 117.008 18.5485 116.602 19.1817C116.196 19.8095 115.625 20.2965 114.889 20.6429C114.158 20.9892 113.322 21.1624 112.381 21.1624C110.827 21.1624 109.604 20.6564 108.711 19.6444C107.818 18.6324 107.372 17.2037 107.372 15.3583V14.7738C107.372 13.6157 107.572 12.6037 107.973 11.7378C108.379 10.8665 108.96 10.1954 109.718 9.72461C110.476 9.24837 111.352 9.01025 112.348 9.01025C113.782 9.01025 114.935 9.38908 115.806 10.1467C116.678 10.899 117.173 11.938 117.292 13.2639H114.451C114.429 12.5441 114.248 12.0273 113.907 11.7134C113.566 11.3996 113.046 11.2426 112.348 11.2426C111.639 11.2426 111.12 11.5078 110.789 12.0381C110.459 12.5685 110.286 13.4154 110.27 14.579V15.4151C110.27 16.676 110.427 17.5771 110.741 18.1183C111.06 18.6595 111.607 18.9301 112.381 18.9301C113.035 18.9301 113.536 18.7758 113.882 18.4673C114.229 18.1589 114.413 17.6691 114.434 16.998H117.267Z" fill="#8794BA"/>
<path d="M124.711 17.8585C124.711 17.4418 124.562 17.1171 124.265 16.8844C123.973 16.6517 123.456 16.4109 122.714 16.1619C121.973 15.913 121.367 15.6722 120.896 15.4395C119.364 14.6872 118.599 13.6536 118.599 12.3385C118.599 11.6837 118.788 11.1073 119.167 10.6094C119.551 10.1061 120.092 9.71649 120.79 9.44049C121.489 9.15908 122.273 9.01837 123.145 9.01837C123.994 9.01837 124.755 9.1699 125.426 9.47296C126.102 9.77602 126.627 10.209 127 10.7718C127.374 11.3292 127.561 11.9678 127.561 12.6876H124.719C124.719 12.2059 124.571 11.8325 124.273 11.5673C123.981 11.3021 123.583 11.1696 123.08 11.1696C122.571 11.1696 122.168 11.2832 121.87 11.5105C121.578 11.7324 121.432 12.0165 121.432 12.3629C121.432 12.6659 121.594 12.9419 121.919 13.1909C122.244 13.4344 122.814 13.6887 123.632 13.9539C124.449 14.2137 125.12 14.4951 125.645 14.7982C126.922 15.5342 127.561 16.5489 127.561 17.8423C127.561 18.8759 127.171 19.6877 126.392 20.2776C125.612 20.8675 124.544 21.1624 123.185 21.1624C122.227 21.1624 121.359 20.9919 120.579 20.651C119.806 20.3046 119.221 19.8338 118.826 19.2385C118.436 18.6378 118.242 17.9478 118.242 17.1685H121.099C121.099 17.8017 121.261 18.2698 121.586 18.5729C121.916 18.8705 122.449 19.0193 123.185 19.0193C123.656 19.0193 124.027 18.9192 124.297 18.719C124.573 18.5133 124.711 18.2265 124.711 17.8585Z" fill="#8794BA"/>
</svg>

<svg width="139" height="30" fill="none" xmlns="http://www.w3.org/2000/svg"><path d="M27.381 6.53A14.982 14.982 0 0015 0C6.716 0 0 6.716 0 15c0 1.205.142 2.377.41 3.5l7.64-7.638a1.875 1.875 0 012.65 0l6.175 6.174L27.381 6.53z" fill="#8794BA"/><path d="M29.164 10.05L18.201 21.013a1.875 1.875 0 01-2.652 0L9.375 14.84l-7.474 7.475C4.467 26.9 9.37 30 15 30c8.284 0 15-6.716 15-15 0-1.735-.294-3.4-.836-4.95zm17.942 8.742h-3.904L42.52 21h-3.044L43.81 9.18h2.68L50.856 21h-3.06l-.69-2.208zm-3.222-2.2h2.54l-1.274-4.1-1.266 4.1zM61.596 21h-2.833l-4.188-7.355V21h-2.85V9.18h2.85l4.18 7.355V9.181h2.841V21zm8.662-2.208h-3.905L65.671 21h-3.044l4.335-11.82h2.679L74.008 21h-3.06l-.69-2.208zm-3.223-2.2h2.541l-1.274-4.1-1.267 4.1zm10.691 2.216h4.96V21h-7.81V9.18h2.85v9.628zm8.215-4.497l2.176-5.13h3.076l-3.807 7.574V21h-2.89v-4.245L80.697 9.18h3.06l2.184 5.13zm15.538-2.931h-3.548V21h-2.85v-9.62H91.6v-2.2h9.88v2.2zm4.245 9.62h-2.841V9.18h2.841V21zm11.543-4.002c-.037.823-.259 1.55-.665 2.184-.406.628-.977 1.115-1.713 1.46-.731.347-1.567.52-2.508.52-1.554 0-2.777-.506-3.67-1.518-.893-1.012-1.339-2.44-1.339-4.286v-.584c0-1.158.2-2.17.601-3.036.406-.871.987-1.543 1.745-2.013.758-.477 1.634-.715 2.63-.715 1.434 0 2.587.38 3.458 1.137.872.752 1.367 1.791 1.486 3.117h-2.841c-.022-.72-.203-1.237-.544-1.55-.341-.314-.861-.471-1.559-.471-.709 0-1.228.265-1.559.795-.33.53-.503 1.377-.519 2.541v.836c0 1.261.157 2.162.471 2.703.319.542.866.812 1.64.812.654 0 1.155-.154 1.501-.463.347-.308.531-.798.552-1.469h2.833zm7.444.86c0-.416-.149-.74-.446-.974-.292-.232-.809-.473-1.551-.722a14.94 14.94 0 01-1.818-.722c-1.532-.753-2.297-1.786-2.297-3.101 0-.655.189-1.232.568-1.73.384-.503.925-.893 1.623-1.169.699-.28 1.483-.422 2.355-.422.849 0 1.61.152 2.281.455.676.303 1.201.736 1.574 1.299.374.557.561 1.196.561 1.916h-2.842c0-.482-.148-.856-.446-1.12-.292-.266-.69-.398-1.193-.398-.509 0-.912.113-1.21.34-.292.222-.438.507-.438.853 0 .303.162.579.487.828.325.243.895.498 1.713.763.817.26 1.488.541 2.013.844 1.277.736 1.916 1.75 1.916 3.044 0 1.034-.39 1.846-1.169 2.436-.78.59-1.848.884-3.207.884-.958 0-1.826-.17-2.606-.511-.773-.346-1.358-.817-1.753-1.413-.39-.6-.584-1.29-.584-2.07h2.857c0 .634.162 1.102.487 1.405.33.297.863.446 1.599.446.471 0 .842-.1 1.112-.3.276-.206.414-.492.414-.86z" fill="#8794BA"/></svg>
